.local/share/icons/Gruvbox-Plus-Dark/actions/16/amarok_cart_view.svg

<svg width="16" height="16" version="1.1" xmlns="http://www.w3.org/2000/svg">
  <defs>
    <style id="current-color-scheme" type="text/css">.ColorScheme-Text { color:#ebdbb2; } .ColorScheme-Highlight { color:#458588; }</style>
  </defs>
  <path class="ColorScheme-Text" d="m5 1c-0.554 0-1 0.446-1 1v3h-2c-0.554 0-1 0.446-1 1v8c0 0.554 0.446 1 1 1h12c0.554 0 1-0.446 1-1v-8c0-0.554-0.446-1-1-1h-2v-3c0-0.554-0.446-1-1-1h-6zm1 2h4v2h-4v-2z" fill="currentColor"/>
</svg>

<svg xmlns="http://www.w3.org/2000/svg" width="16" height="16" viewBox="0 0 16 16">
 <defs>
  <style id="current-color-scheme" type="text/css">
   .ColorScheme-Text { color:#ebdbb2; } .ColorScheme-Highlight { color:#458588; }
  </style>
 </defs>
 <path style="fill:currentColor" class="ColorScheme-Text" d="M 5 1 C 4.446 1 4 1.446 4 2 L 4 5 L 2 5 C 1.446 5 1 5.446 1 6 L 1 14 C 1 14.554 1.446 15 2 15 L 14 15 C 14.554 15 15 14.554 15 14 L 15 6 C 15 5.446 14.554 5 14 5 L 12 5 L 12 2 C 12 1.446 11.554 1 11 1 L 5 1 z M 6 3 L 10 3 L 10 5 L 6 5 L 6 3 z"/>
</svg>
